ids-wordpress/site-IdS/assets/images/projetos/icones-ferramentasetec/chatGPT 1.svg

<svg width="35" height="35" viewBox="0 0 35 35" fill="none" xmlns="http://www.w3.org/2000/svg">
<g clip-path="url(#clip0_695_1564)">
<path d="M15.4951 0.0738213C27.3547 -0.928359 36.5831 8.50333 34.7717 20.5206C32.7926 33.6507 16.6972 39.4259 6.51014 31.1618C-5.46431 21.4465 -0.0175967 1.38505 15.4951 0.0738213ZM16.2506 1.2159C0.412541 2.36434 -4.39212 23.1926 8.85003 31.3436C20.7576 38.673 35.632 28.9386 33.6378 14.9997C32.4293 6.55365 24.6137 0.610522 16.2506 1.2159Z" fill="#F75705"/>
<path d="M19.5504 10.1934C19.6324 10.271 19.6967 10.3613 19.7825 10.4338C22.9524 9.7305 25.7363 12.8566 24.7158 15.9623C26.898 18.3724 25.5988 22.3989 22.4264 23.0208C22.1287 23.9518 21.5106 24.7746 20.6932 25.3012C18.9386 26.4318 16.6025 26.1342 15.2175 24.5661C12.0501 25.2706 9.26117 22.1433 10.2829 19.0375C8.09942 16.6313 9.40119 12.5971 12.5723 11.979C13.0378 10.4898 14.337 9.34132 15.8684 9.08315C17.2471 8.85041 18.5299 9.23831 19.5491 10.1934H19.5504ZM14.9135 18.1002V13.2419C14.9135 13.1173 15.1014 12.91 15.2124 12.8515L18.6207 10.8649C16.687 9.20524 13.6635 10.5305 13.4705 13.0575V17.2354L13.4932 17.2812L14.9122 18.1002H14.9135ZM23.7723 15.1687C23.911 14.3052 23.6941 13.392 23.1643 12.7014C22.2599 11.5237 20.6932 11.1295 19.3397 11.7488C18.26 12.2423 17.2105 13.0664 16.1345 13.5955C16.0576 13.6693 15.6993 13.813 15.6804 13.8969L15.6779 15.4816L15.7019 15.5375L19.727 13.1796C19.9439 13.041 20.1887 13.0677 20.3981 13.2025L23.7698 15.1687H23.7723ZM12.373 13.2076C11.461 13.495 10.7143 14.3268 10.4444 15.2438C10.0243 16.6682 10.6147 18.1664 11.871 18.918L15.2579 20.8829L15.3575 20.8677L16.7223 20.0855L12.6493 17.6945C12.5597 17.6564 12.373 17.4389 12.373 17.3499V13.2076ZM22.6282 21.7923C23.2236 21.6079 23.766 21.1665 24.1217 20.6553C25.1245 19.2156 24.7751 17.2316 23.3548 16.2256L19.7497 14.1119C19.6866 14.0953 19.6248 14.1449 19.5693 14.1729C19.2451 14.3344 18.6876 14.6524 18.3962 14.8597C18.3647 14.8826 18.3029 14.9042 18.3029 14.95L22.3848 17.3206C22.463 17.374 22.6295 17.5597 22.6295 17.6513V21.7935L22.6282 21.7923ZM17.4716 15.404L15.6829 16.4621L15.7031 18.5619L17.5095 19.5997L19.2969 18.5619L19.3095 16.4952C19.2956 16.3935 19.095 16.3057 19.0029 16.2498C18.535 15.9649 18.0443 15.7131 17.5776 15.4256L17.4716 15.404ZM20.0865 16.8996V21.7579C20.0865 21.8915 19.8998 22.0848 19.7875 22.1484L16.3792 24.1235C18.3003 25.8086 21.3618 24.4643 21.5295 21.9182V17.7645L21.469 17.6869L20.0877 16.8984L20.0865 16.8996ZM19.3082 21.1347V19.4611L15.2124 21.8508C15.027 21.9385 14.8202 21.9309 14.6461 21.819L11.239 19.8299C10.9376 21.3967 11.9492 22.9801 13.4541 23.4138C14.1995 23.6288 14.9564 23.5728 15.6615 23.2498L19.3082 21.1335V21.1347Z" fill="#F75705"/>
</g>
<defs>
<clipPath id="clip0_695_1564">
<rect width="35" height="35" fill="white"/>
</clipPath>
</defs>
</svg>

<svg xmlns="http://www.w3.org/2000/svg" width="35" height="35" fill="none"><g fill="#F75705" clip-path="url(#a)"><path d="M15.495.074c11.86-1.002 21.088 8.43 19.277 20.447-1.98 13.13-18.075 18.905-28.262 10.64C-5.464 21.447-.018 1.386 15.495.075Zm.756 1.142C.413 2.364-4.392 23.193 8.85 31.344 20.758 38.673 35.632 28.939 33.638 15 32.429 6.554 24.614.61 16.25 1.216Z"/><path d="M19.55 10.193c.082.078.147.168.232.24 3.17-.703 5.954 2.424 4.934 5.53 2.182 2.41.883 6.436-2.29 7.058a4.277 4.277 0 0 1-1.733 2.28c-1.754 1.13-4.09.833-5.476-.735-3.167.705-5.956-2.423-4.934-5.528-2.184-2.407-.882-6.44 2.29-7.059.465-1.49 1.764-2.638 3.295-2.896 1.38-.233 2.662.155 3.681 1.11h.001ZM14.914 18.1v-4.858c0-.125.187-.332.298-.39l3.409-1.987c-1.934-1.66-4.957-.335-5.15 2.192v4.178l.022.046 1.42.82Zm8.858-2.931a3.247 3.247 0 0 0-.608-2.468 3.143 3.143 0 0 0-3.824-.952c-1.08.493-2.13 1.317-3.206 1.846-.076.074-.435.218-.454.302l-.002 1.585.024.056 4.025-2.358c.217-.139.462-.112.671.023l3.372 1.966h.002Zm-11.399-1.961c-.912.287-1.659 1.119-1.929 2.036a3.206 3.206 0 0 0 1.427 3.674l3.387 1.965.1-.015 1.364-.782-4.073-2.391c-.09-.039-.276-.256-.276-.345v-4.142Zm10.255 8.584c.596-.184 1.138-.626 1.494-1.137a3.198 3.198 0 0 0-.767-4.43l-3.605-2.113c-.063-.017-.125.033-.18.06-.325.162-.882.48-1.174.688-.031.023-.093.044-.093.09l4.082 2.37c.078.054.244.24.244.331v4.143-.002Zm-5.156-6.388-1.79 1.058.021 2.1L17.51 19.6l1.788-1.038.012-2.067c-.013-.102-.214-.19-.306-.245-.468-.285-.959-.537-1.425-.824l-.106-.022Zm2.614 1.496v4.858c0 .134-.186.327-.298.39l-3.409 1.976c1.921 1.685 4.983.34 5.15-2.206v-4.153l-.06-.078-1.381-.789-.002.002Zm-.778 4.235V19.46l-4.096 2.39a.574.574 0 0 1-.566-.032l-3.407-1.99c-.301 1.568.71 3.151 2.215 3.585a3.128 3.128 0 0 0 2.207-.164l3.647-2.116Z"/></g><defs><clipPath id="a"><path fill="#fff" d="M0 0h35v35H0z"/></clipPath></defs></svg>
